X:1
T:Title
%%score 1 ( 2 3 ) ( 4 5 6 )
L:1/8
Q:1/4=52
M:6/8
K:C
V:1 treble nm="Voice Oohs, Staff"
V:2 bass nm="Contrabass, Staff-1"
V:3 bass 
V:4 treble nm="Church Organ, Staff-2"
V:5 treble 
V:6 treble 
V:1
 EED E2 E | GED E2 E | AAA G E2 | GED E2 E | cBA B G2 | BAG D2 D | AGA G E2 | GEC E D2 | A,6- | %9
 A,6 |] %10
V:2
 E,6 | C,6 | G,2 F, F,2 E, | A,2 ^F, A, ^G,2 | A,3- A,G,F, | [C,,G,]3 G,F,E, | [D,,F,]3 [E,,G,]3 | %7
w: By~Zolt�n~Kod�ly|||||||
 C,D,E, F,2- [G,,F,] | F,3 G,E,D, | E,6 |] %10
w: |||
V:3
 A,,3 G,,3 | F,,3 C,,2 [C,G,] | F,,3 A,,3 | B,,3 E,,3 | D,,3 G,,3 | z3 F,,3 | x6 | F,,3 .F,,3 | %8
 A,,6- | A,,6 |] %10
V:4
 EED E2 E | GED [G,E]2 E | AAA .G2 C | .G3 .E3 | cBA BED | BAG A,2- [A,D] | AGA .G2 B, | %7
 GEC[K:bass] .E2 B, | A,6- | A,6 |] %10
V:5
 C3 B,3 | A,3 z3 | z3 z E2 | C-[CE][B,D] B,2- [B,E] | F3- F G2 | E3 .D3 | z3 z E2 | %7
 z3[K:bass] z D2 | x6 | x6 |] %10
V:6
 x6 | x6 | E2 D- D2 z | x6 | x6 | x6 | B,3 .C3 | A,3[K:bass] .A,3 | x6 | x6 |] %10

